X:1
T:Prelude No. 1 - BWV 846
T:Prelude No. 1
T:Johann Sebastian Bach (1685-1750)
T:BWV 846
T:Public Domain
T:Public Domain
C:Johann Sebastian Bach(1685-1750)
Z:Public Domain
L:1/8
Q:1/4=64
M:4/4
K:C
V:1 treble nm="Flute"
V:1
 c/e/g/c'/ e'/g/c'/e'/ c/e/g/c'/ e'/g/c'/e'/ | c/d/a/d'/ f'/a/d'/f'/ c/d/a/d'/ f'/a/d'/f'/ | %2
 B/d/g/d'/ f'/g/d'/f'/ B/d/g/d'/ f'/g/d'/f'/ | c/e/g/c'/ e'/g/c'/e'/ c/e/g/c'/ e'/g/c'/e'/ | %4
 c/e/a/e'/ a'/a/e'/a'/ c/e/a/e'/ a'/a/e'/a'/ | c/d/^f/a/ d'/f/a/d'/ c/d/f/a/ d'/f/a/d'/ | %6
 B/d/g/d'/ g'/g/d'/g'/ B/d/g/d'/ g'/g/d'/g'/ | B/c/e/g/ c'/e/g/c'/ B/c/e/g/ c'/e/g/c'/ | %8
 A/c/e/g/ c'/e/g/c'/ A/c/e/g/ c'/e/g/c'/ | D/A/d/^f/ c'/d/f/c'/ D/A/d/f/ c'/d/f/c'/ | %10
 G/B/d/g/ b/d/g/b/ G/B/d/g/ b/d/g/b/ | G/_B/e/g/ ^c'/e/g/c'/ G/B/e/g/ c'/e/g/c'/ | %12
 F/A/d/a/ d'/d/a/d'/ F/A/d/a/ d'/d/a/d'/ | F/_A/d/f/ b/d/f/b/ F/A/d/f/ b/d/f/b/ | %14
 E/G/c/g/ c'/c/g/c'/ E/G/c/g/ c'/c/g/c'/ | E/F/A/c/ f/A/c/f/ E/F/A/c/ f/A/c/f/ | %16
 D/F/A/c/ f/A/c/f/ d/f/a/c'/ f'/a/c'/f'/ | G/d/g/b/ f'/g/b/f'/ G/d/g/b/ f'/g/b/f'/ | %18
 c/e/g/c'/ e'/g/c'/e'/ c/e/g/c'/ e'/g/c'/e'/ | c/g/_b/c'/ e'/b/c'/e'/ c/g/b/c'/ e'/b/c'/e'/ | %20
 F/f/a/c'/ e'/a/c'/e'/ F/f/a/c'/ e'/a/c'/e'/ | ^F/c/a/c'/ _e'/a/c'/e'/ F/c/a/c'/ e'/a/c'/e'/ | %22
 _A/=f/b/c'/ d'/b/c'/d'/ A/f/b/c'/ d'/b/c'/d'/ | G/f/g/b/ d'/g/b/d'/ G/f/g/b/ d'/g/b/d'/ | %24
 G/e/g/c'/ e'/g/c'/e'/ G/e/g/c'/ e'/g/c'/e'/ | G/d/g/c'/ f'/g/c'/f'/ G/d/g/c'/ f'/g/c'/f'/ | %26
 G/d/g/b/ f'/g/b/f'/ G/d/g/b/ f'/g/b/f'/ | G/_e/a/c'/ ^f'/a/c'/f'/ G/e/a/c'/ f'/a/c'/f'/ | %28
 G/=e/g/c'/ g'/g/c'/g'/ G/e/g/c'/ g'/g/c'/g'/ | G/d/g/c'/ f'/g/c'/f'/ G/d/g/c'/ f'/g/c'/f'/ | %30
 G/d/g/b/ f'/g/b/f'/ G/d/g/b/ f'/g/b/f'/ | C/c/g/_b/ e'/g/b/e'/ C/c/g/b/ e'/g/b/e'/ | %32
 C/c/f/a/ c'/f'/c'/a/ c'/a/f/a/ f/d/f/d/ | C/=B/g/b/ d'/f'/d'/b/ d'/b/g/b/ d/f/e/d/ | %34
{!fermata!C!fermata!c!fermata!e!fermata!g} !fermata!c'8 |] %35

